; generated by Slic3r 1.0.0RC2 on 2014-04-18 at 21:56:55

; layer_height = 0.4
; perimeters = 3
; top_solid_layers = 3
; bottom_solid_layers = 3
; fill_density = 0.4
; perimeter_speed = 30
; infill_speed = 60
; travel_speed = 130
; nozzle_diameter = 0.5
; filament_diameter = 3
; extrusion_multiplier = 1
; perimeters extrusion width = 0.50mm
; infill extrusion width = 0.53mm
; solid infill extrusion width = 0.53mm
; top infill extrusion width = 0.53mm
; first layer extrusion width = 1.00mm

G21 ; set units to millimeters
M107
M104 S205 ; set temperature
G28 ; home all axes
G1 Z5 F5000 ; lift nozzle
M109 S205 ; wait for temperature to be reached
G90 ; use absolute coordinates
G92 E0
M82 ; use absolute distances for extrusion
G1 F1800.000 E-1.00000
G92 E0
G1 Z0.500 F7800.000
G1 X39.210 Y41.613 F7800.000
G1 E1.00000 F1800.000
G1 X40.300 Y40.673 E1.09089 F540.000
G1 X41.560 Y39.973 E1.18191
G1 X42.930 Y39.553 E1.27239
G1 X155.560 Y17.413 E8.52058
G1 X156.900 Y17.283 E8.60559
G1 X158.240 Y17.413 E8.69060
G1 X159.530 Y17.803 E8.77570
G1 X160.720 Y18.443 E8.86102
G1 X161.760 Y19.303 E8.94624
G1 X163.490 Y21.033 E9.10073
G1 X164.430 Y22.193 E9.19501
G1 X165.090 Y23.523 E9.28876
G1 X165.450 Y24.963 E9.38249
G1 X165.490 Y26.453 E9.47661
G1 X160.100 Y93.713 E13.73740
G1 X159.980 Y94.543 E13.79035
G1 X159.770 Y95.353 E13.84319
G1 X132.990 Y175.353 E19.17036
G1 X132.390 Y176.653 E19.26077
G1 X131.540 Y177.803 E19.35107
G1 X130.480 Y178.753 E19.44095
G1 X129.230 Y179.473 E19.53204
G1 X127.870 Y179.903 E19.62211
G1 X126.450 Y180.053 E19.71228
G1 X124.010 Y180.053 E19.86635
G1 X122.440 Y179.873 E19.96614
G1 X120.950 Y179.343 E20.06600
G1 X119.630 Y178.483 E20.16548
G1 X118.530 Y177.343 E20.26552
G1 X75.390 Y120.853 E24.75382
G1 X74.840 Y120.013 E24.81722
G1 X36.970 Y51.753 E29.74644
G1 X36.410 Y50.433 E29.83698
G1 X36.130 Y49.013 E29.92838
G1 X36.160 Y47.573 E30.01933
G1 X36.480 Y46.173 E30.11001
G1 X37.090 Y44.863 E30.20126
G1 X38.350 Y42.763 E30.35590
G1 X39.130 Y41.721 E30.43813
G1 F1800.000 E29.43813
G92 E0
G1 X83.162 Y71.316 F7800.000
G1 E1.00000 F1800.000
G1 X124.724 Y57.811 E3.75957 F540.000
G1 X150.412 Y93.167 E6.51916
G1 X124.725 Y128.522 E9.27874
G1 X83.162 Y115.018 E12.03833
G1 X83.162 Y71.450 E14.78945
G1 X82.269 Y70.667 F7800.000
G1 X125.065 Y56.762 E17.63094 F540.000
G1 X151.515 Y93.167 E20.47243
G1 X125.066 Y129.572 E23.31392
G1 X82.269 Y115.666 E26.15542
G1 X82.269 Y70.801 E28.98845
G1 X81.376 Y70.886 F7800.000
G1 X43.693 Y48.243 E31.76451 F378.000
G1 X44.438 Y47.005 E31.85577
G1 X82.260 Y69.731 E34.64204
G1 X125.406 Y55.712 E37.50673
G1 X125.685 Y56.096 E37.53670
G1 X156.900 Y24.882 E40.32420
G1 X157.921 Y25.904 E40.41544
G1 X126.545 Y57.280 E43.21731
G1 X152.619 Y93.167 E46.01836
G1 X125.959 Y129.860 E48.88237
G1 X125.959 Y172.667 E51.58541
G1 X124.514 Y172.667 E51.67666
G1 X124.514 Y130.331 E54.34996
G1 X81.376 Y116.315 E57.21412
G1 X81.376 Y71.020 E60.07431
G1 X81.691 Y70.050 F7800.000
G1 X124.442 Y58.536 F7800.000
G1 X124.680 Y58.775 E60.09579 F1080.000
G1 X128.059 Y63.425 F7800.000
G1 X123.482 Y58.848 E60.50752 F1080.000
G1 X122.522 Y59.160 E60.57171
G1 X131.438 Y68.076 E61.37367
G1 X134.816 Y72.726 F7800.000
G1 X121.562 Y59.472 E62.56588 F1080.000
G1 X120.602 Y59.784 E62.63007
G1 X138.195 Y77.376 E64.21251
G1 X141.574 Y82.026 F7800.000
G1 X119.643 Y60.095 E66.18520 F1080.000
G1 X118.683 Y60.407 E66.24938
G1 X144.952 Y86.677 E68.61231
G1 X148.331 Y91.327 F7800.000
G1 X117.723 Y60.719 E71.36547 F1080.000
G1 X116.763 Y61.031 E71.42966
G1 X149.344 Y93.612 E74.36029
G1 X148.809 Y94.348 E74.41819
G1 X115.803 Y61.343 E77.38702
G1 X114.844 Y61.655 E77.45120
G1 X148.274 Y95.085 E80.45823
G1 X147.739 Y95.821 E80.51613
G1 X113.884 Y61.967 E83.56136
G1 X112.924 Y62.278 E83.62555
G1 X147.204 Y96.558 E86.70897
G1 X146.669 Y97.294 E86.76687
G1 X111.964 Y62.590 E89.88849
G1 X111.005 Y62.902 E89.95268
G1 X146.133 Y98.031 E93.11250
G1 X145.598 Y98.767 E93.17040
G1 X110.045 Y63.214 E96.36842
G1 X109.085 Y63.526 E96.43261
G1 X145.063 Y99.504 E99.66883
G1 X144.528 Y100.240 E99.72673
G1 X108.125 Y63.838 E103.00115
G1 X107.165 Y64.149 E103.06533
G1 X143.993 Y100.977 E106.37795
G1 X143.458 Y101.713 E106.43585
G1 X106.206 Y64.461 E109.78666
G1 X105.246 Y64.773 E109.85085
G1 X142.923 Y102.450 E113.23986
G1 X142.388 Y103.187 E113.29777
G1 X104.286 Y65.085 E116.72498
G1 X103.326 Y65.397 E116.78916
G1 X141.852 Y103.923 E120.25457
G1 X141.317 Y104.660 E120.31248
G1 X102.367 Y65.709 E123.81608
G1 X101.407 Y66.021 E123.88027
G1 X140.782 Y105.396 E127.42208
G1 X140.247 Y106.133 E127.47998
G1 X100.447 Y66.332 E131.05998
G1 X99.487 Y66.644 E131.12417
G1 X139.712 Y106.869 E134.74237
G1 X139.177 Y107.606 E134.80028
G1 X98.527 Y66.956 E138.45668
G1 X97.568 Y67.268 E138.52087
G1 X138.642 Y108.342 E142.21547
G1 X138.107 Y109.079 E142.27337
G1 X96.608 Y67.580 E146.00617
G1 X95.648 Y67.892 E146.07036
G1 X137.572 Y109.815 E149.84135
G1 X137.036 Y110.552 E149.89926
G1 X94.688 Y68.204 E153.70845
G1 X93.729 Y68.515 E153.77264
G1 X136.501 Y111.288 E157.62004
G1 X135.966 Y112.025 E157.67794
G1 X92.769 Y68.827 E161.56353
G1 X91.809 Y69.139 E161.62772
G1 X135.431 Y112.761 E165.55151
G1 X134.896 Y113.498 E165.60942
G1 X90.849 Y69.451 E169.57141
G1 X89.889 Y69.763 E169.63559
G1 X134.361 Y114.234 E173.63578
G1 X133.826 Y114.971 E173.69369
G1 X88.930 Y70.075 E177.73207
G1 X87.970 Y70.387 E177.79626
G1 X133.291 Y115.707 E181.87285
G1 X132.756 Y116.444 E181.93075
G1 X87.010 Y70.698 E186.04553
G1 X86.050 Y71.010 E186.10972
G1 X132.220 Y117.180 E190.26270
G1 X131.685 Y117.917 E190.32061
G1 X85.091 Y71.322 E194.51179
G1 X84.131 Y71.634 E194.57598
G1 X131.150 Y118.653 E198.80536
G1 X130.615 Y119.390 E198.86326
G1 X83.764 Y72.539 E203.07752
G1 X83.764 Y73.810 E203.15840
G1 X130.080 Y120.126 E207.32453
G1 X129.545 Y120.863 E207.38243
G1 X83.764 Y75.082 E211.50043
G1 X83.764 Y76.353 E211.58131
G1 X129.010 Y121.599 E215.65117
G1 X128.475 Y122.336 E215.70907
G1 X83.764 Y77.625 E219.73080
G1 X83.764 Y78.897 E219.81168
G1 X127.940 Y123.073 E223.78527
G1 X127.404 Y123.809 E223.84318
G1 X83.764 Y80.168 E227.76864
G1 X83.764 Y81.440 E227.84952
G1 X126.869 Y124.546 E231.72685
G1 X126.334 Y125.282 E231.78475
G1 X83.764 Y82.712 E235.61394
G1 X83.764 Y83.983 E235.69482
G1 X125.799 Y126.019 E239.47589
G1 X125.264 Y126.755 E239.53379
G1 X83.764 Y85.255 E243.26672
G1 X83.764 Y86.526 E243.34760
G1 X124.729 Y127.492 E247.03239
G1 X123.436 Y127.470 E247.11464
G1 X83.764 Y87.798 E250.68314
G1 X83.764 Y89.070 E250.76402
G1 X121.552 Y126.858 E254.16308
G1 X119.669 Y126.246 E254.28905
G1 X83.764 Y90.341 E257.51868
G1 X83.764 Y91.613 E257.59956
G1 X117.785 Y125.634 E260.65975
G1 X115.901 Y125.022 E260.78572
G1 X83.764 Y92.885 E263.67647
G1 X83.764 Y94.156 E263.75735
G1 X114.018 Y124.410 E266.47867
G1 X112.134 Y123.798 E266.60464
G1 X83.764 Y95.428 E269.15653
G1 X83.764 Y96.700 E269.23741
G1 X110.250 Y123.186 E271.61985
G1 X108.367 Y122.574 E271.74583
G1 X83.764 Y97.971 E273.95883
G1 X83.764 Y99.243 E274.03972
G1 X106.483 Y121.962 E276.08329
G1 X104.599 Y121.350 E276.20926
G1 X83.764 Y100.514 E278.08340
G1 X83.764 Y101.786 E278.16428
G1 X102.715 Y120.738 E279.86898
G1 X100.832 Y120.126 E279.99496
G1 X83.764 Y103.058 E281.53022
G1 X83.764 Y104.329 E281.61110
G1 X98.948 Y119.514 E282.97693
G1 X97.064 Y118.902 E283.10291
G1 X83.764 Y105.601 E284.29930
G1 X83.764 Y106.873 E284.38018
G1 X95.181 Y118.290 E285.40714
G1 X93.297 Y117.678 E285.53312
G1 X83.764 Y108.144 E286.39064
G1 X83.764 Y109.416 E286.47152
G1 X91.413 Y117.066 E287.15961
G1 X89.530 Y116.454 E287.28558
G1 X83.764 Y110.687 E287.80423
G1 X83.764 Y111.959 E287.88511
G1 X87.646 Y115.841 E288.23433
G1 X85.762 Y115.229 E288.36030
G1 X83.764 Y113.231 E288.54008
G1 X83.764 Y114.502 E288.62096
G1 X83.879 Y114.617 E288.63130
G1 X125.282 Y130.299 F7800.000
G1 X125.334 Y130.352 E288.63353 F360.000
G1 X125.139 Y130.755 E288.64691 F360.000
G1 X125.334 Y130.949 E288.65514 F360.000
G1 X125.139 Y131.353 E288.66852 F360.000
G1 X125.334 Y131.547 E288.67676 F360.000
G1 X125.139 Y131.950 E288.69014 F360.000
G1 X125.334 Y132.145 E288.69837 F360.000
G1 X125.139 Y132.548 E288.71175 F360.000
G1 X125.334 Y132.743 E288.71998 F360.000
G1 X125.139 Y133.146 E288.73337 F360.000
G1 X125.334 Y133.340 E288.74160 F360.000
G1 X125.139 Y133.744 E288.75498 F360.000
G1 X125.334 Y133.938 E288.76321 F360.000
G1 X125.139 Y134.341 E288.77659 F360.000
G1 X125.334 Y134.536 E288.78482 F360.000
G1 X125.139 Y134.939 E288.79821 F360.000
G1 X125.334 Y135.134 E288.80644 F360.000
G1 X125.139 Y135.537 E288.81982 F360.000
G1 X125.334 Y135.731 E288.82805 F360.000
G1 X125.139 Y136.134 E288.84143 F360.000
G1 X125.334 Y136.329 E288.84966 F360.000
G1 X125.139 Y136.732 E288.86305 F360.000
G1 X125.334 Y136.927 E288.87128 F360.000
G1 X125.139 Y137.330 E288.88466 F360.000
G1 X125.334 Y137.525 E288.89289 F360.000
G1 X125.139 Y137.928 E288.90627 F360.000
G1 X125.334 Y138.122 E288.91451 F360.000
G1 X125.139 Y138.525 E288.92789 F360.000
G1 X125.334 Y138.720 E288.93612 F360.000
G1 X125.139 Y139.123 E288.94950 F360.000
G1 X125.334 Y139.318 E288.95773 F360.000
G1 X125.139 Y139.721 E288.97112 F360.000
G1 X125.334 Y139.916 E288.97935 F360.000
G1 X125.139 Y140.319 E288.99273 F360.000
G1 X125.334 Y140.513 E289.00096 F360.000
G1 X125.139 Y140.916 E289.01434 F360.000
G1 X125.334 Y141.111 E289.02257 F360.000
G1 X125.139 Y141.514 E289.03596 F360.000
G1 X125.334 Y141.709 E289.04419 F360.000
G1 X125.139 Y142.112 E289.05757 F360.000
G1 X125.334 Y142.307 E289.06580 F360.000
G1 X125.139 Y142.710 E289.07918 F360.000
G1 X125.334 Y142.904 E289.08741 F360.000
G1 X125.139 Y143.307 E289.10080 F360.000
G1 X125.334 Y143.502 E289.10903 F360.000
G1 X125.139 Y143.905 E289.12241 F360.000
G1 X125.334 Y144.100 E289.13064 F360.000
G1 X125.139 Y144.503 E289.14402 F360.000
G1 X125.334 Y144.698 E289.15226 F360.000
G1 X125.139 Y145.101 E289.16564 F360.000
G1 X125.334 Y145.295 E289.17387 F360.000
G1 X125.139 Y145.698 E289.18725 F360.000
G1 X125.334 Y145.893 E289.19548 F360.000
G1 X125.139 Y146.296 E289.20887 F360.000
G1 X125.334 Y146.491 E289.21710 F360.000
G1 X125.139 Y146.894 E289.23048 F360.000
G1 X125.334 Y147.089 E289.23871 F360.000
G1 X125.139 Y147.492 E289.25209 F360.000
G1 X125.334 Y147.686 E289.26032 F360.000
G1 X125.139 Y148.089 E289.27371 F360.000
G1 X125.334 Y148.284 E289.28194 F360.000
G1 X125.139 Y148.687 E289.29532 F360.000
G1 X125.334 Y148.882 E289.30355 F360.000
G1 X125.139 Y149.285 E289.31693 F360.000
G1 X125.334 Y149.480 E289.32516 F360.000
G1 X125.139 Y149.883 E289.33855 F360.000
G1 X125.334 Y150.077 E289.34678 F360.000
G1 X125.139 Y150.480 E289.36016 F360.000
G1 X125.334 Y150.675 E289.36839 F360.000
G1 X125.139 Y151.078 E289.38177 F360.000
G1 X125.334 Y151.273 E289.39001 F360.000
G1 X125.139 Y151.676 E289.40339 F360.000
G1 X125.334 Y151.870 E289.41162 F360.000
G1 X125.139 Y152.274 E289.42500 F360.000
G1 X125.334 Y152.468 E289.43323 F360.000
G1 X125.139 Y152.871 E289.44662 F360.000
G1 X125.334 Y153.066 E289.45485 F360.000
G1 X125.139 Y153.469 E289.46823 F360.000
G1 X125.334 Y153.664 E289.47646 F360.000
G1 X125.139 Y154.067 E289.48984 F360.000
G1 X125.334 Y154.261 E289.49807 F360.000
G1 X125.139 Y154.665 E289.51146 F360.000
G1 X125.334 Y154.859 E289.51969 F360.000
G1 X125.139 Y155.262 E289.53307 F360.000
G1 X125.334 Y155.457 E289.54130 F360.000
G1 X125.139 Y155.860 E289.55468 F360.000
G1 X125.334 Y156.055 E289.56291 F360.000
G1 X125.139 Y156.458 E289.57630 F360.000
G1 X125.334 Y156.652 E289.58453 F360.000
G1 X125.139 Y157.056 E289.59791 F360.000
G1 X125.334 Y157.250 E289.60614 F360.000
G1 X125.139 Y157.653 E289.61952 F360.000
G1 X125.334 Y157.848 E289.62776 F360.000
G1 X125.139 Y158.251 E289.64114 F360.000
G1 X125.334 Y158.446 E289.64937 F360.000
G1 X125.139 Y158.849 E289.66275 F360.000
G1 X125.334 Y159.043 E289.67098 F360.000
G1 X125.139 Y159.447 E289.68437 F360.000
G1 X125.334 Y159.641 E289.69260 F360.000
G1 X125.139 Y160.044 E289.70598 F360.000
G1 X125.334 Y160.239 E289.71421 F360.000
G1 X125.139 Y160.642 E289.72759 F360.000
G1 X125.334 Y160.837 E289.73582 F360.000
G1 X125.139 Y161.240 E289.74921 F360.000
G1 X125.334 Y161.434 E289.75744 F360.000
G1 X125.139 Y161.837 E289.77082 F360.000
G1 X125.334 Y162.032 E289.77905 F360.000
G1 X125.139 Y162.435 E289.79243 F360.000
G1 X125.334 Y162.630 E289.80066 F360.000
G1 X125.139 Y163.033 E289.81405 F360.000
G1 X125.334 Y163.228 E289.82228 F360.000
G1 X125.139 Y163.631 E289.83566 F360.000
G1 X125.334 Y163.825 E289.84389 F360.000
G1 X125.139 Y164.228 E289.85727 F360.000
G1 X125.334 Y164.423 E289.86551 F360.000
G1 X125.139 Y164.826 E289.87889 F360.000
G1 X125.334 Y165.021 E289.88712 F360.000
G1 X125.139 Y165.424 E289.90050 F360.000
G1 X125.334 Y165.619 E289.90873 F360.000
G1 X125.139 Y166.022 E289.92212 F360.000
G1 X125.334 Y166.216 E289.93035 F360.000
G1 X125.139 Y166.619 E289.94373 F360.000
G1 X125.334 Y166.814 E289.95196 F360.000
G1 X125.139 Y167.217 E289.96534 F360.000
G1 X125.334 Y167.412 E289.97357 F360.000
G1 X125.139 Y167.815 E289.98696 F360.000
G1 X125.334 Y168.010 E289.99519 F360.000
G1 X125.139 Y168.413 E290.00857 F360.000
G1 X125.334 Y168.607 E290.01680 F360.000
G1 X125.139 Y169.010 E290.03018 F360.000
G1 X125.334 Y169.205 E290.03841 F360.000
G1 X125.139 Y169.608 E290.05180 F360.000
G1 X125.334 Y169.803 E290.06003 F360.000
G1 X125.139 Y170.206 E290.07341 F360.000
G1 X125.334 Y170.401 E290.08164 F360.000
G1 X125.139 Y170.804 E290.09503 F360.000
G1 X125.334 Y170.998 E290.10326 F360.000
G1 X125.139 Y171.401 E290.11664 F360.000
G1 X125.334 Y171.596 E290.12487 F360.000
G1 X125.139 Y171.999 E290.13825 F360.000
G1 X125.182 Y172.041 E290.14004 F360.000
G1 F1800.000 E289.14004
G92 E0
G1 X81.732 Y70.170 F7800.000
G1 E1.00000 F1800.000
G1 X81.664 Y70.102 E1.00290 F360.000
G1 X80.730 Y69.768 F7800.000
G1 X80.160 Y69.198 E1.02707 F360.000
G1 X79.226 Y68.864 F7800.000
G1 X78.656 Y68.295 E1.05125 F360.000
G1 X77.722 Y67.961 F7800.000
G1 X77.153 Y67.391 E1.07542 F360.000
G1 X76.219 Y67.057 F7800.000
G1 X75.649 Y66.488 E1.09960 F360.000
G1 X74.715 Y66.154 F7800.000
G1 X74.146 Y65.584 E1.12378 F360.000
G1 X73.211 Y65.250 F7800.000
G1 X72.642 Y64.681 E1.14796 F360.000
G1 X71.708 Y64.347 F7800.000
G1 X71.138 Y63.777 E1.17214 F360.000
G1 X70.204 Y63.444 F7800.000
G1 X69.635 Y62.874 E1.19632 F360.000
G1 X68.700 Y62.540 F7800.000
G1 X68.131 Y61.970 E1.22050 F360.000
G1 X67.197 Y61.637 F7800.000
G1 X66.627 Y61.067 E1.24468 F360.000
G1 X65.693 Y60.733 F7800.000
G1 X65.124 Y60.164 E1.26886 F360.000
G1 X64.190 Y59.830 F7800.000
G1 X63.620 Y59.260 E1.29304 F360.000
G1 X62.686 Y58.926 F7800.000
G1 X62.116 Y58.357 E1.31723 F360.000
G1 X61.182 Y58.023 F7800.000
G1 X60.613 Y57.453 E1.34141 F360.000
G1 X59.679 Y57.119 F7800.000
G1 X59.109 Y56.550 E1.36560 F360.000
G1 X58.175 Y56.216 F7800.000
G1 X57.605 Y55.646 E1.38978 F360.000
G1 X56.671 Y55.312 F7800.000
G1 X56.102 Y54.743 E1.41397 F360.000
G1 X55.168 Y54.409 F7800.000
G1 X54.598 Y53.839 E1.43816 F360.000
G1 X53.664 Y53.505 F7800.000
G1 X53.094 Y52.936 E1.46234 F360.000
G1 X52.160 Y52.602 F7800.000
G1 X51.591 Y52.032 E1.48653 F360.000
G1 X50.657 Y51.698 F7800.000
G1 X50.087 Y51.129 E1.51072 F360.000
G1 X49.153 Y50.795 F7800.000
G1 X48.583 Y50.225 E1.53491 F360.000
G1 X47.650 Y49.891 F7800.000
G1 X47.080 Y49.322 E1.55910 F360.000
G1 X46.146 Y48.988 F7800.000
G1 X45.576 Y48.418 E1.58329 F360.000
G1 X44.642 Y48.084 F7800.000
G1 X44.565 Y48.007 E1.58658 F360.000
G1 F1800.000 E0.58658
G92 E0
G1 X125.889 Y56.831 F7800.000
G1 E1.00000 F1800.000
G1 X126.175 Y56.521 E1.01260 F360.000
G1 X126.283 Y56.628 E1.01715 F360.000
G1 X126.581 Y56.330 E1.02974 F360.000
G1 X126.473 Y56.222 E1.03428 F360.000
G1 X126.772 Y55.924 E1.04687 F360.000
G1 X126.879 Y56.032 E1.05142 F360.000
G1 X127.178 Y55.734 E1.06401 F360.000
G1 X127.070 Y55.626 E1.06856 F360.000
G1 X127.368 Y55.327 E1.08114 F360.000
G1 X127.476 Y55.435 E1.08569 F360.000
G1 X127.774 Y55.137 E1.09828 F360.000
G1 X127.666 Y55.029 E1.10283 F360.000
G1 X127.965 Y54.731 E1.11542 F360.000
G1 X128.072 Y54.839 E1.11996 F360.000
G1 X128.371 Y54.540 E1.13255 F360.000
